X: 1
T: Burn of Sorrow
T: 8x32S 2C (Barry Priddey - Silver Rose Book)
P: Gin Worth Living
C: by Susanna Blamire
C: listed as "The Waeful Heart" in "The Songs of Scotland" by Graham
C: from Music Makars "Jig For Joy" 
C: arr. T. Traub 8-4-2017
M: 4/4
L: 1/8
K: G
D|"G"G2> A2 B2 AG|"Am"A2> B2 "D"c2 BA|"G"G2 Bd "C"edcB|"D"B4 A2 z G|"G"G2 > F2 E2> D2| "C"E2 GA "G"B2 "C"e2|"G"d2 > e2 "D"B2 A2|"G"G6 B2||
"Bm"d2 ef "Em"g2 fe|"D"d2 > e2 B2 > e2|"G"d2 > e2 dBAG|"G"B4 "D"A2 z G|"G"G2 Bd "C"e2>d2|"Em"g2 > a2 "C"g2 fe|"G"dB"C"ge "D"dBAB|"G"G6 z2 |]

